docs/themes/v2/source/images/new/logo1.svg

<svg fill="none" height="56" viewBox="0 0 58 56" width="58" xmlns="http://www.w3.org/2000/svg"><path d="m57.1996 28.1698c0-15.559-12.6108-28.1698-28.1698-28.1698s-28.169815 12.6108-28.169815 28.1698c0 14.0617 10.295515 25.7155 23.770715 27.8302v-19.6803h-7.1467v-8.1499h7.1467v-6.2051c0-7.054 4.1984-10.9592 10.635-10.9592 3.0871 0 6.3131.5557 6.3131.5557v6.9305h-3.5501c-3.5039 0-4.5844 2.1764-4.5844 4.3992v5.2789h7.8104l-1.2503 8.1499h-6.5601v19.6803c13.4598-2.1147 23.7553-13.7685 23.7553-27.8302z" fill="#1877f2"/></svg>

<svg width="58" height="56" viewBox="0 0 58 56" fill="none" xmlns="http://www.w3.org/2000/svg">
<path d="M57.1996 28.1698C57.1996 12.6108 44.5888 0 29.0298 0C13.4708 0 0.859985 12.6108 0.859985 28.1698C0.859985 42.2315 11.1555 53.8853 24.6307 56V36.3197H17.484V28.1698H24.6307V21.9647C24.6307 14.9107 28.8291 11.0055 35.2657 11.0055C38.3528 11.0055 41.5788 11.5612 41.5788 11.5612V18.4917H38.0287C34.5248 18.4917 33.4443 20.6681 33.4443 22.8909V28.1698H41.2547L40.0044 36.3197H33.4443V56C46.9041 53.8853 57.1996 42.2315 57.1996 28.1698Z" fill="#1877F2"/>
</svg>
